X:246
T:
R:polska
S:Efter »Florsen» i Burs.
O:Gotland, Burs
M:3/4
L:1/16
K:F
a4 gbeg Lf3 A|c2cA cBAG LF3 f|afcf afcf a2a2|gece gece g2g2|
f3e d2e2 f2a2|gfed d4 c4::cBAB cdef d3B|B2AB cdeg c4|
a4 gbeg f3A|cABG G4 F4::c=Bcd c2C2 C4|c2dc BAGA A2B2|
d^cd_e d2B,2 B,4|B,2de f2ed d2c2|cBAB cdef d3B|B2AB cdeg c4|
a4 gbeg f2A2|cABG G4 F4:|

